src/raw/gas-fuel/icon_24.svg

<svg width="24" height="24" viewBox="0 0 24 24" fill="none" xmlns="http://www.w3.org/2000/svg">
<path d="M14.75 0.75H1.75C1.19772 0.75 0.75 1.19772 0.75 1.75V22.25C0.75 22.8023 1.19772 23.25 1.75 23.25H14.75C15.3023 23.25 15.75 22.8023 15.75 22.25V1.75C15.75 1.19772 15.3023 0.75 14.75 0.75Z" stroke="#71717A" stroke-width="1.5" stroke-linecap="round" stroke-linejoin="round"/>
<path d="M12.75 5.25C12.75 4.85218 12.592 4.47064 12.3107 4.18934C12.0294 3.90804 11.6478 3.75 11.25 3.75H5.25C4.85218 3.75 4.47064 3.90804 4.18934 4.18934C3.90804 4.47064 3.75 4.85218 3.75 5.25C3.75 5.64782 3.90804 6.02936 4.18934 6.31066C4.47064 6.59196 4.85218 6.75 5.25 6.75H11.25C11.6478 6.75 12.0294 6.59196 12.3107 6.31066C12.592 6.02936 12.75 5.64782 12.75 5.25Z" stroke="#71717A" stroke-width="1.5" stroke-linecap="round" stroke-linejoin="round"/>
<path d="M0.75 9.75H15.75" stroke="#71717A" stroke-width="1.5" stroke-linecap="round" stroke-linejoin="round"/>
<path d="M15.75 5.25H17.25C17.6478 5.25 18.0294 5.40804 18.3107 5.68934C18.592 5.97064 18.75 6.35218 18.75 6.75V21.75C18.75 22.1478 18.908 22.5294 19.1893 22.8107C19.4706 23.092 19.8522 23.25 20.25 23.25C20.6478 23.25 21.0294 23.092 21.3107 22.8107C21.592 22.5294 21.75 22.1478 21.75 21.75V12.75C21.7499 11.7713 22.0394 10.8145 22.582 10L23.2122 9.05663" stroke="#71717A" stroke-width="1.5" stroke-linecap="round" stroke-linejoin="round"/>
<path d="M21.75 12.75H23.25" stroke="#71717A" stroke-width="1.5" stroke-linecap="round" stroke-linejoin="round"/>
</svg>

<svg xmlns="http://www.w3.org/2000/svg" width="24" height="24" fill="none" viewBox="0 0 24 24">
  <path stroke="#3F3F46" stroke-linecap="round" stroke-linejoin="round" stroke-width="1.5"
    d="M14.75.75h-13a1 1 0 0 0-1 1v20.5a1 1 0 0 0 1 1h13a1 1 0 0 0 1-1V1.75a1 1 0 0 0-1-1Z" />
  <path stroke="#3F3F46" stroke-linecap="round" stroke-linejoin="round" stroke-width="1.5"
    d="M12.75 5.25a1.5 1.5 0 0 0-1.5-1.5h-6a1.5 1.5 0 0 0 0 3h6a1.5 1.5 0 0 0 1.5-1.5ZM.75 9.75h15M15.75 5.25h1.5a1.5 1.5 0 0 1 1.5 1.5v15a1.5 1.5 0 1 0 3 0v-9c0-.979.29-1.935.832-2.75l.668-1M21.75 12.75h1.5" />
</svg>
